src/_includes/svg/green.svg

<svg width="286" height="394" viewBox="0 0 286 394" fill="none" xmlns="http://www.w3.org/2000/svg">
<mask id="mask0_270_472" style="mask-type:alpha" maskUnits="userSpaceOnUse" x="7" y="0" width="272" height="387">
<rect x="7.70898" width="270.874" height="386.243" rx="10" fill="#CDE6C4"/>
</mask>
<g mask="url(#mask0_270_472)">
<path d="M176.986 450.674C141.854 450.674 110.009 436.59 86.8227 413.743C77.1205 404.197 64.445 399.502 51.7695 399.633L30.8524 321.493L51.7695 243.771C60.4807 243.85 69.3222 241.659 77.1726 237.199C80.7458 235.165 84.1103 232.661 87.1879 229.687C110.374 207.075 142.037 193.122 176.986 193.122C244.562 193.122 300.35 246.04 305.279 312.365C305.54 315.912 305.644 319.511 305.618 323.136C304.966 393.686 247.613 450.674 176.986 450.674Z" fill="#DAEED3"/>
<path d="M176.986 450.673C141.854 450.673 110.009 436.589 86.8227 413.742C77.1205 404.197 64.445 399.502 51.7695 399.632L30.8524 321.493L51.7695 243.771C60.4807 243.849 69.3222 241.658 77.1726 237.198L77.1726 378.298C80.9283 380.41 84.4755 383.019 87.7096 386.201C110.922 409.048 142.767 423.132 177.872 423.132C242.815 423.132 296.516 374.96 305.279 312.365C305.54 315.912 305.644 319.511 305.618 323.136C304.966 393.686 247.614 450.673 176.986 450.673Z" fill="#B1D6A1"/>
<path d="M221.873 372.924C221.873 358.371 210.058 346.53 195.505 346.53L185.02 346.53L185.02 296.48L195.687 296.48C210.214 296.48 222.055 284.639 222.055 270.086C222.055 255.533 210.24 243.692 195.687 243.692C181.134 243.692 169.319 255.533 169.319 270.086L169.319 280.779L30.8277 280.779L30.8277 296.48L169.319 296.48L169.319 346.53L30.8277 346.53L30.8277 362.231L169.319 362.231L169.319 372.846C169.319 387.426 181.055 399.293 195.504 399.293C210.032 399.293 221.873 387.452 221.873 372.924ZM185.02 270.086C185.02 264.192 189.819 259.393 195.687 259.393C201.555 259.393 206.354 264.192 206.354 270.086C206.354 275.98 201.581 280.779 195.687 280.779L185.02 280.779L185.02 270.086ZM185.02 372.846L185.02 362.231L195.504 362.231C201.373 362.231 206.172 367.03 206.172 372.924C206.172 378.819 201.399 383.618 195.504 383.618C189.714 383.592 185.02 378.767 185.02 372.846Z" fill="#96BC84"/>
<path d="M1.01364 417.159C-5.61099 417.159 -10.9576 411.786 -10.9576 405.162L-10.9575 238.92C-10.9575 235.608 -9.6275 232.608 -7.46275 230.444C-5.29801 228.279 -2.29867 226.923 1.01365 226.923C2.29163 226.923 3.51756 227.053 4.7173 227.288C13.6632 229.009 20.3921 236.886 20.3921 246.327L30.8506 321.519L20.3921 397.755C20.3921 399.711 20.1052 401.615 19.5575 403.388C18.6186 406.466 16.9493 409.256 14.7324 411.473C11.2114 414.994 6.38637 417.159 1.01364 417.159Z" fill="#96BC84"/>
<path d="M1.01386 417.159C-5.61078 417.159 -10.9573 411.786 -10.9573 405.162L-10.9573 238.92C-10.9573 235.608 -9.62728 232.608 -7.46253 230.444C-5.29779 228.279 -2.29845 226.923 1.01386 226.923C2.29185 226.923 3.51778 227.053 4.71751 227.288L4.71751 391.626C4.71751 398.25 10.0641 403.597 16.6887 403.597C17.6537 403.597 18.6188 403.519 19.5577 403.388C18.6188 406.466 16.9495 409.256 14.7326 411.473C11.2116 414.994 6.38659 417.159 1.01386 417.159Z" fill="#85A576"/>
<path d="M32.3897 416.846C25.7651 416.846 20.4184 411.474 20.4184 404.849L20.4184 238.581C20.4184 235.269 21.7486 232.269 23.9133 230.105C26.0781 227.94 29.0774 226.584 32.3897 226.584C33.6677 226.584 34.8935 226.714 36.0932 226.949C45.0391 228.67 51.7681 236.547 51.7681 245.988L51.7681 397.416C51.7681 399.372 51.4811 401.276 50.9334 403.049C49.9945 406.127 48.3254 408.918 46.1085 411.135C42.5875 414.682 37.7364 416.846 32.3897 416.846Z" fill="#96BC84"/>
<path d="M32.3916 416.846C25.7669 416.846 20.4202 411.474 20.4202 404.849L20.4202 238.581C20.4202 235.269 21.7504 232.269 23.9152 230.105C26.0799 227.94 29.0793 226.584 32.3916 226.584C33.6696 226.584 34.8953 226.714 36.0951 226.949L36.0951 391.287C36.0951 397.911 41.4418 403.258 48.0664 403.258C49.0314 403.258 49.9964 403.18 50.9353 403.049C49.9964 406.127 48.3272 408.918 46.1103 411.135C42.5894 414.682 37.7382 416.846 32.3916 416.846Z" fill="#85A576"/>
</g>
</svg>

<svg xmlns="http://www.w3.org/2000/svg" fill="none" aria-hidden="true" viewBox="0 0 270.874 386.243"><mask id="a" width="272" height="387" x="0" y="0" maskUnits="userSpaceOnUse" style="mask-type:alpha"><rect width="270.874" height="386.243" class="cls-1" rx="10"/></mask><g mask="url(#a)"><path d="M176.986 450.674c-35.132 0-66.977-14.084-90.163-36.931-9.702-9.546-22.378-14.241-35.053-14.11l-20.918-78.14 20.918-77.722c8.71.079 17.552-2.112 25.403-6.572a49.98 49.98 0 0 0 10.015-7.512c23.186-22.612 54.849-36.565 89.798-36.565 67.576 0 123.364 52.918 128.293 119.243.261 3.547.365 7.146.339 10.771-.652 70.55-58.005 127.538-128.632 127.538Z" class="cls-2"/><path d="M176.986 450.673c-35.132 0-66.977-14.084-90.163-36.931-9.702-9.546-22.378-14.24-35.053-14.11l-20.918-78.139 20.918-77.722c8.71.078 17.552-2.113 25.403-6.573v141.1A49.676 49.676 0 0 1 87.71 386.2c23.212 22.847 55.057 36.931 90.162 36.931 64.943 0 118.644-48.172 127.407-110.767.261 3.547.365 7.147.339 10.772-.652 70.55-58.004 127.537-128.632 127.537Z" class="cls-3"/><path d="M221.873 372.924c0-14.553-11.815-26.394-26.368-26.394H185.02v-50.05h10.667c14.527 0 26.368-11.841 26.368-26.394 0-14.553-11.815-26.394-26.368-26.394-14.553 0-26.368 11.841-26.368 26.394v10.693H30.828v15.701h138.491v50.05H30.828v15.701h138.491v10.615c0 14.58 11.736 26.447 26.185 26.447 14.528 0 26.369-11.841 26.369-26.369ZM185.02 270.086c0-5.894 4.799-10.693 10.667-10.693 5.868 0 10.667 4.799 10.667 10.693 0 5.894-4.773 10.693-10.667 10.693H185.02v-10.693Zm0 102.76v-10.615h10.484c5.869 0 10.668 4.799 10.668 10.693 0 5.895-4.773 10.694-10.668 10.694-5.79-.026-10.484-4.851-10.484-10.772Z" class="cls-4"/><path d="M1.014 417.159c-6.625 0-11.972-5.372-11.972-11.997V238.92c0-3.312 1.33-6.311 3.495-8.476a11.965 11.965 0 0 1 8.477-3.521c1.278 0 2.504.13 3.703.365 8.946 1.721 15.675 9.598 15.675 19.039l10.459 75.192-10.459 76.236c0 1.956-.287 3.86-.834 5.633-.94 3.078-2.609 5.869-4.826 8.086-3.52 3.521-8.346 5.685-13.718 5.685Z" class="cls-4"/><path d="M1.014 417.159c-6.625 0-11.971-5.372-11.971-11.997V238.92c0-3.312 1.33-6.311 3.494-8.476a11.965 11.965 0 0 1 8.477-3.521c1.278 0 2.504.13 3.704.365v164.338a11.955 11.955 0 0 0 11.97 11.971c.966 0 1.93-.078 2.87-.209-.94 3.078-2.608 5.869-4.825 8.086-3.521 3.521-8.346 5.685-13.72 5.685Z" class="cls-5"/><path d="M32.39 416.846c-6.625 0-11.972-5.373-11.972-11.997V238.581c0-3.312 1.33-6.312 3.495-8.477a11.969 11.969 0 0 1 8.477-3.521c1.278 0 2.504.131 3.703.366 8.946 1.721 15.675 9.598 15.675 19.039v151.428c0 1.956-.287 3.86-.834 5.633-.94 3.078-2.609 5.868-4.825 8.085a19.254 19.254 0 0 1-13.72 5.712Z" class="cls-4"/><path d="M32.392 416.846c-6.625 0-11.972-5.373-11.972-11.997V238.581c0-3.312 1.33-6.312 3.495-8.477a11.969 11.969 0 0 1 8.477-3.521c1.278 0 2.503.131 3.703.366v164.337a11.955 11.955 0 0 0 11.971 11.972c.965 0 1.93-.078 2.87-.209-.94 3.078-2.609 5.868-4.826 8.085a19.253 19.253 0 0 1-13.718 5.712Z" class="cls-5"/></g></svg>
